src/assets/tokens/ANGLE-bsc.svg

<svg width="194" height="194" viewBox="0 0 194 194" fill="none" xmlns="http://www.w3.org/2000/svg">
<circle cx="97" cy="97" r="97" fill="#FAF1E7"/>
<path d="M154.547 119.309L97.0596 62.1619L39.5719 119.309L68.3161 147.882L97.06 119.309L125.803 147.882L154.547 119.309Z" fill="white"/>
<path d="M97.0596 119.308L125.804 147.885L131.552 133.734L97.0596 99.4463L97.0596 119.308Z" fill="#FAF1E7" stroke="#1F2333" stroke-width="1.71294" stroke-linejoin="round"/>
<path d="M154.551 119.302L125.804 147.876L131.553 133.734L166.045 99.4463L154.551 119.302Z" fill="#1F2333" stroke="#1F2333" stroke-width="1.71294" stroke-linejoin="round"/>
<path d="M97.0601 119.308L68.316 147.885L62.5674 133.734L97.0601 99.4463L97.0601 119.308Z" fill="#1F2333" stroke="#1F2333" stroke-width="1.71294" stroke-linejoin="round"/>
<path d="M39.5683 119.302L68.3155 147.876L62.5669 133.734L28.0742 99.4463L39.5683 119.302Z" fill="#FAF1E7" stroke="#1F2333" stroke-width="1.71294" stroke-linejoin="round"/>
<path d="M166.045 99.4437L97.0596 30.8677L28.0743 99.4437L62.5674 133.732L97.06 99.4442L131.552 133.732L166.045 99.4437Z" fill="url(#paint0_linear_5043_60905)" stroke="#1F2333" stroke-width="1.71294" stroke-linejoin="round"/>
<g opacity="0.9">
<circle cx="97.0291" cy="47.0291" r="36.0291" fill="white"/>
</g>
<path d="M84.6023 30.6642L97.8027 23.4653L111.003 30.6642L106.15 33.3241L97.8027 28.7842L89.455 33.3241L84.6017 30.6642H84.6023ZM111.003 39.744L106.15 37.0846L97.8027 41.6235L89.455 37.0841L84.6017 39.7435V45.0623L92.9494 49.6017V58.6811L97.8027 61.3405L102.656 58.6811V49.6017L111.004 45.0623V39.744H111.003ZM111.003 54.1421V48.8223L106.15 51.4817V56.8011L111.004 54.1416L111.003 54.1421ZM114.449 56.0221L106.102 60.5611V65.8799L119.303 58.6811V44.2824L114.449 46.9418V56.0212V56.0221ZM109.596 35.2046L114.449 37.864V43.1828L119.303 40.5229V35.2041L114.449 32.5442L109.596 35.2041V35.2046ZM92.9494 62.4866V67.8059L97.8027 70.4653L102.656 67.8059V62.4866L97.8027 65.1465L92.9494 62.4866ZM84.6023 54.1416L89.4556 56.8011V51.4817L84.6023 48.8223V54.1416V54.1416ZM92.95 35.2041L97.8033 37.8635L102.657 35.2041L97.8033 32.5442L92.95 35.2041ZM81.1566 37.8635L86.0099 35.2041L81.1566 32.5442L76.3027 35.2041V40.5224L81.156 43.1818V37.864L81.1566 37.8635ZM81.1566 46.9423L76.3027 44.2829V58.6811L89.5032 65.8799V60.5611L81.156 56.0216V46.9423H81.1566Z" fill="#F1B90C"/>
<defs>
<linearGradient id="paint0_linear_5043_60905" x1="166.044" y1="82.2992" x2="28.0743" y2="82.2992" gradientUnits="userSpaceOnUse">
<stop stop-color="#FAF1E7"/>
<stop offset="0.26021" stop-color="#FDCEAA"/>
<stop offset="0.61201" stop-color="#F4837D"/>
<stop offset="0.9999" stop-color="#B9AAFD"/>
</linearGradient>
</defs>
</svg>

<svg fill="none" height="194" width="194" xmlns="http://www.w3.org/2000/svg"><linearGradient id="a" gradientUnits="userSpaceOnUse" x1="166.044" x2="28.074" y1="82.299" y2="82.299"><stop offset="0" stop-color="#faf1e7"/><stop offset=".26" stop-color="#fdceaa"/><stop offset=".612" stop-color="#f4837d"/><stop offset="1" stop-color="#b9aafd"/></linearGradient><circle cx="97" cy="97" fill="#faf1e7" r="97"/><path d="M154.547 119.309L97.06 62.162l-57.488 57.147 28.744 28.573 28.744-28.573 28.743 28.573z" fill="#fff"/><g stroke="#1f2333" stroke-linejoin="round" stroke-width="1.713"><path d="M97.06 119.308l28.744 28.577 5.748-14.151L97.06 99.446z" fill="#faf1e7"/><path d="M154.551 119.302l-28.747 28.574 5.749-14.142 34.492-34.288zm-57.49.006l-28.745 28.577-5.749-14.151L97.06 99.446z" fill="#1f2333"/><path d="M39.568 119.302l28.748 28.574-5.75-14.142-34.492-34.288z" fill="#faf1e7"/><path d="M166.045 99.444L97.06 30.868 28.074 99.444l34.493 34.288L97.06 99.444l34.492 34.288z" fill="url(#a)"/></g><circle cx="97.029" cy="47.029" fill="#fff" opacity=".9" r="36.029"/><path d="M84.602 30.664l13.2-7.199 13.201 7.2-4.853 2.66-8.347-4.54-8.348 4.54-4.853-2.66zm26.401 9.08l-4.853-2.66-8.347 4.54-8.348-4.54-4.853 2.66v5.318l8.347 4.54v9.08l4.854 2.658 4.853-2.659v-9.08l8.348-4.539v-5.318zm0 14.398v-5.32l-4.853 2.66v5.32l4.854-2.66zm3.446 1.88l-8.347 4.54v5.318l13.201-7.199V44.282l-4.854 2.66v9.08zm-4.853-20.817l4.853 2.659v5.319l4.854-2.66v-5.319l-4.854-2.66-4.853 2.66zM92.949 62.487v5.319l4.854 2.66 4.853-2.66v-5.32l-4.853 2.66zm-8.347-8.345l4.854 2.66v-5.32l-4.854-2.66zm8.348-18.938l4.853 2.66 4.854-2.66-4.854-2.66zm-11.793 2.66l4.853-2.66-4.853-2.66-4.854 2.66v5.318l4.853 2.66v-5.318zm0 9.078l-4.854-2.66v14.4l13.2 7.198V60.56l-8.347-4.54v-9.079z" fill="#f1b90c"/></svg>
